!!!COM:	Anonymous
!!!OTL:	Robinet / Se tu te marie / H&eacute;las pourquoy
!!!AGN:	Song; Chanson
!!!SCT:	Ano3033
!!!SCA:	Ano3033
!!!SMS:	Escorial B
!!!folio:	
!!!voices:	3
**kern	**kern	**kern
*staff3	*staff2	*staff1
*Ivox	*Ivox	*Ivox
*I"Contratenor	*I"Tenor	*I"Superius
*I'Ct	*I'T	*I'S
*clefF4	*clefF4	*clefG2
*k[b-]	*k[b-]	*k[]
*M3/1	*M3/1	*M3/1
*met(O)	*met(O)	*met(O)
=1-	=1-	=1-
1c	0.r	1.cc
2c	.	.
2c	.	2a
2c	.	4g
.	.	4a
2d	.	2b-i
=2	=2	=2
2d	0.r	4a
.	.	4f
2c	.	2e
2d	.	2.f
2A	.	.
.	.	4g
2A	.	2a
2A	.	2cc
=3	=3	=3
2G	0.r	2b-i
2F	.	2.a
2B-	.	.
.	.	4f
2B-	.	2g
1A	.	1a
=4	=4	=4
0F	2c	1r
.	2c	.
.	2A	1f
.	2B-	.
1C	1c	1e
=5	=5	=5
2F	2c	2.d
2G	2B-	.
.	.	4B-i
2F	2A	2c
2.c	2F	1f
.	2G	.
4A	.	.
2B-	2G	2e
=6	=6	=6
1c	0F	2f
.	.	2e
1A	.	2.c
.	.	4d
2G	1C	2.e
[2c	.	.
.	.	4d
=7	=7	=7
2c]	2F	2d
2G	2E	2c
2A	2F	4d
.	.	4c
1G	2C	1c
.	1D	.
2F	.	2B
=8	=8	=8
1G	0C	1c
2r	.	1r
2c	.	.
2c	1F	1r
2c	.	.
=9	=9	=9
2c	2E	2e
2d	2D	2f
2d	1G	1d
2B-	.	.
2A	1c	2a
2A	.	[2cc
=10	=10	=10
2c	2A	4cc]
.	.	4b-i
2c	1F	2a
2c	.	2.f
2d	2D	.
.	.	4g
2c	2F	2a
2B-	2G	2b-i
=11	=11	=11
1A	1c	4cc
.	.	4b-i
.	.	2a
2G	2B-	2d
1d	2G	1g
.	1A	.
2c	.	2f#i
=12	=12	=12
0.dN	0.GN	1gN
.	.	1r
.	.	1r
=13	=13	=13
2r	0.C	2e
2c	.	2e
2c	.	2f
2c	.	2g
2c	.	1a
2d	.	.
=14	=14	=14
2d	0.r	2b-
2c	.	2cc
2d	.	2b-i
2A	.	2a
2A	.	2.f
2A	.	.
.	.	4d
=15	=15	=15
2G	0.r	2e
2F	.	2.a
2B-	.	.
.	.	4g
2B-	.	2g
1A	.	2a
.	.	2f
=16	=16	=16
0.C	2c	1e
.	2c	.
.	2A	2r
.	2B-	2d
.	1c	2e
.	.	[2a
=17	=17	=17
1G	2c	4a]
.	.	4g
.	2B-	2g
2D	2A	4f
.	.	4g
2F	2F	2.f
1C	2G	.
.	.	4e
.	2G	4e
.	.	4d
=18	=18	=18
0c	0.F	1f
.	.	2r
.	.	2f
2r	.	1c
2c	.	.
=19	=19	=19
1A	2r	1d
.	2F	.
1G	1C	2r
.	.	2e
1F	2r	1f
.	2D	.
=20	=20	=20
2r	0C	2g
2c	.	2a
2A	.	2.cc
2c	.	.
.	.	4b-i
2d	2r	2b-i
2c	2F	2a
=21	=21	=21
2A	2F	2d
2G	2B-	2g
4F	2A	4a
4E	.	4f
2D	2F	2.f
1C	1G	.
.	.	4e
.	.	4e
.	.	4d
=22	=22	=22
0.cl	0.Fl	0.fl
==	==	==
*-	*-	*-
!!!RDF**kern: l=long note in original notation
!!!RDF**kern: i=editorial accidental
!!!RDF**kern: N=signum congruentiae
!!!ENC:	Chris Gage 03-06-2015
!!!END:	2015/03/13/
!!!EED:	Jesse Rodin
!!!EEV:	2016/02/22/
!!!ONB:	Translated from MusicXML and edited on 2016/02/22/ by Craig Sapp
!!muse2ps: C^@{COM}\n@{SMS} @{folio}^v95,95,150Q16
